X: 188
T: Londonderry Love Song
N:"With feeling"
B:O'Neill's 188
Z:Transcribed by henrik.norbeck@mailbox.swipnet.se
M:C
L:1/8
K:Em
F GA|B3 A BedB|AG E z GBe|d3 e dBGB|A4 z FGA|
B3 A BedB|AGED EFGA|B3 c BAGF|E4 z||
d ef|g3 f fedB|dB Gz def|g3 f fedB|e4 z ddd|
b3a ageg|dB G z FGA|BedB AGFG|E4 z||


